packages/bezier-icons/icons/tag.svg

<svg width="24" height="24" viewBox="0 0 24 24" fill="none" xmlns="http://www.w3.org/2000/svg">
<path fill-rule="evenodd" clip-rule="evenodd" d="M19.9706 11.0711L12.0711 18.9706C11.29 19.7516 10.0237 19.7516 9.24264 18.9706L5 14.7279C4.21895 13.9469 4.21895 12.6805 5 11.8995L12.8995 4L19.9706 4L19.9706 11.0711ZM11.4853 2.58579C11.8604 2.21071 12.3691 2 12.8995 2H19.9706C21.0751 2 21.9706 2.89543 21.9706 4V11.0711C21.9706 11.6015 21.7598 12.1102 21.3848 12.4853L13.4853 20.3848C11.9232 21.9469 9.39052 21.9469 7.82842 20.3848L3.58578 16.1421C2.02369 14.58 2.02369 12.0474 3.58578 10.4853L11.4853 2.58579ZM18.4853 7.48523C18.4853 8.59056 17.5906 9.48523 16.4853 9.48523C15.3813 9.48523 14.4853 8.59056 14.4853 7.48523C14.4853 6.3799 15.3813 5.48523 16.4853 5.48523C17.5906 5.48523 18.4853 6.3799 18.4853 7.48523Z" fill="#313234"/>
</svg>

<svg xmlns="http://www.w3.org/2000/svg" width="24" height="24" fill="none" viewBox="0 0 24 24"><path fill="#313234" fill-rule="evenodd" d="m19.97 11.071-7.899 7.9a2 2 0 0 1-2.828 0L5 14.728A2 2 0 0 1 5 11.9L12.9 4h7.07zm-8.485-8.485A2 2 0 0 1 12.9 2h7.07a2 2 0 0 1 2 2v7.071a2 2 0 0 1-.585 1.414l-7.9 7.9a4 4 0 0 1-5.657 0l-4.242-4.243a4 4 0 0 1 0-5.657zm7 4.9a1.999 1.999 0 1 1-4 0 2 2 0 1 1 4 0" clip-rule="evenodd"/></svg>
